X:6696
T:the Devil among the tailors
O:england
M:C|
A:North-West
R:Reel
K:A
eg|\
a2eg a2eg| a2ea fedc| dfBf dfBf| dfba gfeg| \
a2eg a2eg| a2ea fedc| defe dcBA| E2G2 A2::\
ed|\
ceAe ceAe| ceag fedc| dfBf dfBf| dfba gfed|\
ceAe ceAe| ceag fedc| defe dcBA| E2G2 A2:|


